X: 21693
T: THE PRIDE OF THE NORTH VALSE 3
C: Composed by Wm. Findlay
%: Bowing and Fingering arranged by W.B. Laybourn
R: waltz
B: K\"ohler's Violin Repository, v.2, 1885 p.169 #3
F: http://www.archive.org/details/klersviolinrepos02rugg
Z: 2012 John Chambers <jc:trillian.mit.edu>
M: 3/4
L: 1/8
K: G
uD2 |\
(B4c2) | (dBdgbg) | (d4B2) | (G4B2) |\
(c2a3)vg | (f4e2) | (d2^c2e2) | (d2^c2=c2) |
(B4c2) | (dBdgbg) | (d4B2) | (G4B2) |\
c2.e.d.c.B | A4G2 | (F2B3A) | G4 :|
|: ud2 |\
(b4g2) | (d4g2) | f2(fgfg) | f4a2 |\
(c'4e2) | (f4a2) | {a}g2f2g2 | b2g2d2 |
(b4g2) | (d4g2) | f2(fgfg) | f4a2 |\
(c'4e2) | f2(c'3b) | a2e2f2 | g2"^Fine."z2 :|

%%sep 2 1 500

